X: 47
M: C
L: 1/8
K: D
[|\
d2 e> g f d d> A |
d2 e> g f d d2 |][| fa (b/a/) g/f/
g g g2 | f> f (g/f/) (e/d/)
(c/d/) (e/c/) A2 | a (b/a/) g (a/g/)
(f/a/) (g/f/) e2 | d2 e> g f d d2 |]

